static/images/pieces/shogun/cburnett/blue/wF.svg

<svg height="45" width="45" xmlns="http://www.w3.org/2000/svg"><g style="fill:#fff;fill-rule:evenodd;stroke:#000;stroke-width:1.5;stroke-linecap:round;stroke-linejoin:round" transform="translate(0 3)"><path d="m8 12c0 2.666666-4 2.666666-4 0 0-2.6666655 4-2.6666655 4 0zm16.5-4.5c0 2.666666-4 2.666666-4 0 0-2.6666655 4-2.6666655 4 0zm16.5 4.5c0 2.666666-4 2.666666-4 0 0-2.6666655 4-2.6666655 4 0z"/><path d="m9 26c8.5-1.5 21-1.5 27 0l2-12-7 11-2-5-3.5 4.5-3-15-3 15-3.5-4.5-2 5-7-11z" stroke-linecap="butt"/><path d="m9 26c0 2 1.5 2 2.5 4 1 1.5 1 1 .5 3.5-1.5 1-1.5 2.5-1.5 2.5h23.5s.5-1.5-1-2.5c-.5-2.5-.5-2 .5-3.5 1-2 2.5-2 2.5-4-8.5-1.5-18.5-1.5-27 0z" stroke-linecap="butt"/><path d="m11.5 30c3.5-1 18.5-1 22 0m-21.5 3.5c6-1 15-1 21 0" fill="none"/></g></svg>

<?xml version="1.0" encoding="UTF-8" standalone="no"?>
<svg
   xmlns:dc="http://purl.org/dc/elements/1.1/"
   xmlns:cc="http://creativecommons.org/ns#"
   xmlns:rdf="http://www.w3.org/1999/02/22-rdf-syntax-ns#"
   xmlns:svg="http://www.w3.org/2000/svg"
   xmlns="http://www.w3.org/2000/svg"
   xmlns:sodipodi="http://sodipodi.sourceforge.net/DTD/sodipodi-0.dtd"
   xmlns:inkscape="http://www.inkscape.org/namespaces/inkscape"
   width="45"
   height="45"
   version="1.1"
   id="svg10373"
   sodipodi:docname="wF.svg"
   inkscape:version="1.0.1 (3bc2e813f5, 2020-09-07)">
  <metadata
     id="metadata10379">
    <rdf:RDF>
      <cc:Work
         rdf:about="">
        <dc:format>image/svg+xml</dc:format>
        <dc:type
           rdf:resource="http://purl.org/dc/dcmitype/StillImage" />
        <dc:title></dc:title>
      </cc:Work>
    </rdf:RDF>
  </metadata>
  <defs
     id="defs10377" />
  <sodipodi:namedview
     pagecolor="#ffffff"
     bordercolor="#666666"
     borderopacity="1"
     objecttolerance="10"
     gridtolerance="10"
     guidetolerance="10"
     inkscape:pageopacity="0"
     inkscape:pageshadow="2"
     inkscape:window-width="1918"
     inkscape:window-height="2037"
     id="namedview10375"
     showgrid="false"
     inkscape:zoom="1.979899"
     inkscape:cx="-6.311581"
     inkscape:cy="181.74814"
     inkscape:window-x="3827"
     inkscape:window-y="-8"
     inkscape:window-maximized="0"
     inkscape:current-layer="svg10373" />
  <g
     fill="#ffffff"
     fill-rule="evenodd"
     stroke="#000000"
     stroke-width="1.5"
     stroke-linecap="round"
     stroke-linejoin="round"
     id="g10371"
     transform="translate(0,3)">
    <path
       d="M 8,12 C 8,14.666666 4,14.666666 4,12 4,9.3333345 8,9.3333345 8,12 Z M 24.5,7.5 c 0,2.666666 -4,2.666666 -4,0 0,-2.6666655 4,-2.6666655 4,0 z M 41,12 c 0,2.666666 -4,2.666666 -4,0 0,-2.6666655 4,-2.6666655 4,0 z"
       id="path10363"
       sodipodi:nodetypes="sssssssss" />
    <path
       d="m 9,26 c 8.5,-1.5 21,-1.5 27,0 l 2,-12 -7,11 -2,-5 -3.5,4.5 -3,-15 -3,15 L 16,20 14,25 7,14 Z"
       stroke-linecap="butt"
       id="path10365"
       sodipodi:nodetypes="cccccccccccc" />
    <path
       d="m 9,26 c 0,2 1.5,2 2.5,4 1,1.5 1,1 0.5,3.5 -1.5,1 -1.5,2.5 -1.5,2.5 H 34 c 0,0 0.5,-1.5 -1,-2.5 -0.5,-2.5 -0.5,-2 0.5,-3.5 1,-2 2.5,-2 2.5,-4 -8.5,-1.5 -18.5,-1.5 -27,0 z"
       stroke-linecap="butt"
       id="path10367"
       sodipodi:nodetypes="ccccccccc" />
    <path
       d="M 11.5,30 C 15,29 30,29 33.5,30 M 12,33.5 c 6,-1 15,-1 21,0"
       fill="none"
       id="path10369" />
  </g>
</svg>
